packages/calcite-ui-icons/icons/single-timeline-16.svg

<?xml version="1.0" encoding="UTF-8"?><svg id="icons" xmlns="http://www.w3.org/2000/svg" viewBox="0 0 16 16"><defs><style>.cls-1{fill:none;}</style></defs><rect class="cls-1" width="16" height="16"/><path d="M13,4h-1v-2h1v.99994h1v1h-1v.00006ZM9.04999,3.5C9.04999,1.59412,10.5946.04999,12.5.04999s3.45001,1.54413,3.45001,3.45001c0,1.90491-1.54462,3.45001-3.45001,3.45001s-3.45001-1.5451-3.45001-3.45001ZM10,3.5c0,1.37909,1.12134,2.50043,2.5,2.50043s2.5-1.12134,2.5-2.50043-1.12134-2.50049-2.5-2.50049-2.5,1.1214-2.5,2.50049ZM10.9079,14h4.0921v1h-4.0921c-.20709.58075-.7569,1-1.4079,1s-1.20081-.41925-1.4079-1h-3.1842c-.20709.58075-.7569,1-1.4079,1s-1.20081-.41925-1.4079-1h-1.0921v-1h1.0921c.15106-.42358.48431-.75684.9079-.9079v-1.43994l-1.13464-1.70239c-.11761.02972-.23865.05023-.36536.05023-.82715,0-1.5-.67285-1.5-1.5s.67285-1.5,1.5-1.5,1.5.67285,1.5,1.5c0,.33624-.11523.64362-.30273.89404l.88086,1.3208,1.5722-1.5722c-.09357-.19556-.15033-.41174-.15033-.64264,0-.82715.67285-1.5,1.5-1.5s1.5.67285,1.5,1.5c0,.2309-.05676.44708-.15033.64264l1.5722,1.5722.88086-1.3208c-.1875-.25043-.30273-.5578-.30273-.89404,0-.82715.67285-1.5,1.5-1.5s1.5.67285,1.5,1.5-.67285,1.5-1.5,1.5c-.12671,0-.24774-.02051-.36536-.05023l-1.13464,1.70239v1.43994c.42358.15106.75684.48431.9079.9079ZM11,9h1v-1h-1v1ZM2,8h-1v1h1v-1ZM6,9h1v-1h-1v1ZM9,11.70703l-1.85736-1.85736c-.19556.09357-.41174.15033-.64264.15033s-.44708-.05676-.64264-.15033l-1.85736,1.85736v1.38507c.42358.15106.75684.48431.9079.9079h3.1842c.15106-.42358.48431-.75684.9079-.9079v-1.38507Z"/></svg>

<svg xmlns="http://www.w3.org/2000/svg" viewBox="0 0 16 16"><path fill="none" d="M0 0h16v16H0z"/><path d="M13 4h-1V2h1v1h1v1h-1zm-3.95-.5a3.45 3.45 0 1 1 6.9 0 3.45 3.45 0 0 1-6.9 0zm.95 0C10 4.88 11.121 6 12.5 6S15 4.88 15 3.5 13.879 1 12.5 1 10 2.12 10 3.5zm.908 10.5H15v1h-4.092c-.207.58-.757 1-1.408 1s-1.2-.42-1.408-1H4.908c-.207.58-.757 1-1.408 1s-1.2-.42-1.408-1H1v-1h1.092c.151-.424.484-.757.908-.908v-1.44L1.865 9.95c-.117.03-.238.05-.365.05C.673 10 0 9.327 0 8.5S.673 7 1.5 7 3 7.673 3 8.5c0 .336-.115.644-.303.894l.881 1.32 1.572-1.57A1.483 1.483 0 0 1 5 8.5C5 7.673 5.673 7 6.5 7S8 7.673 8 8.5c0 .23-.057.447-.15.643l1.572 1.572.88-1.321A1.486 1.486 0 0 1 10 8.5c0-.827.673-1.5 1.5-1.5s1.5.673 1.5 1.5-.673 1.5-1.5 1.5c-.127 0-.248-.02-.365-.05L10 11.652v1.44c.424.151.757.484.908.908zM11 9h1V8h-1v1zM2 8H1v1h1V8zm4 1h1V8H6v1zm3 2.707L7.143 9.85c-.196.093-.412.15-.643.15s-.447-.057-.643-.15L4 11.707v1.385c.424.151.757.484.908.908h3.184c.151-.424.484-.757.908-.908v-1.385z"/></svg>
